X:1
T:St. Paul (Staniforth), 88.88.88
T:St. Paul (Staniforth), 88.88.88
T:Thomas Worsley Staniforth (1845-1909)
T:Public Domain Courtesy of the Cyber Hymnal™
C:Thomas Worsley Staniforth (1845-1909)
Z:Public Domain
Z:Courtesy of the Cyber Hymnal™
%%score ( 1 2 ) ( 3 4 )
L:1/8
Q:1/4=110
M:4/4
K:Eb
V:1 treble 
V:2 treble 
V:3 bass 
V:4 bass 
V:1
 [B,E]2 | [EG]3 [EF] [EA]2 [EG]2 | [EF]2 [DB]2 [EG]2 [B,E]2 | [Cc]2 [DB]2 [EG]3 [E=A] | %4
 B2 z z [DB]2 [DB]2 | [Ee]2 [FB]2 [EG]3 E x2 | [Ec]2 [DB]2 [CG]2 [E=A]2 | [DB]2 [Gc]2 [^Fd]2 B2 | %8
 [FB]2 [F=A]2 [FB]2 [DB]2 | [Ee]2 [FB]2 [EG]3 E | [Ec]2 [DB]2 [EG]2 E2 | A2 A2 (GF) E2 | %12
 [EF]2 [DF]2 E2 |] %13
V:2
 x2 | x8 | x8 | x8 | D (F2 c2 E) x2 | x7 E x2 | x8 | x6 (DE) | x8 | x7 E | x6 (E_D) | %11
 (CE) (FE) D2 E2 | x4 E2 |] %13
V:3
 [E,G,]2 | [E,B,]3 [E,A,] [E,C]2 [E,B,]2 | [C,=A,]2 (_A,F,) [E,G,]2 [G,,G,]2 | %3
 [A,,F,]2 [B,,F,]2 [C,E,]3 [C,E,] | [B,,F,]2 [F,,=A,]2 [B,,B,]2 [B,,_A,]2 | %5
 [C,G,]2 [D,B,]2 B,2 z x3 | [A,C]2 [B,D]2 [CE]2 [F,C]2 | [G,B,]2 [E,G,]2 [D,=A,]2 (B,C) | %8
 [F,D]2 (CE) (ED) B,2 | [G,B,]2 [D,B,]2 [E,B,]3 [G,,B,] | [A,,A,]2 [B,,F,]2 [C,E,]2 G,2 | %11
 (A,C) (DC) [G,,=B,]2 G,2 | [A,,C]2 (B,A,) [E,G,]2 |] %13
V:4
 x2 | x8 | x2 B,,2 x4 | x8 | x8 | x4 E,3 (B,2 G,) | x8 | x6 G,2 | x2 F,2 B,,2 (B,A,) | x8 | %10
 x6 (C,B,,) | A,,2 F,,2 x (C,_B,,) x | x2 B,,2 x2 |] %13

